!!!!SEGMENT: pl-gd--ee-1638--008-002_marenzio-luca--il-quarto-libro-de-madrigalia-a-sei-voci-di-nettare-amoroso.krn
!!!cenid: 15xx:864
!!!COM: Marenzio, Luca
!!!COM-rismID: pe30003955
!!!CDT: ~1553-1599/08/22
!!!CNT: Italian
!!!GTL: Il Quarto Libro de madrigalia a sei voci
!!!OTL: Di nettare amoroso
!!!OMV: 002
!!!PDT: 1587
!!!AGN:
!!!SMS-siglum: PL-GD
!!!SMS-shelfmark: Ee 1638
!!!SMS-variant:
!!!SMS-altvar:
!!!SMS-shelfwork: 008-002 G
!!!NIFC-rismSourceID: 1001202747
!!!NIFC-rismChildID: 990039254
!!!NIFC-islandoraID: pl-gd:57883
!!!URL-pdf-islandora: https://repozytorium.nifc.pl/islandora/object/pl-gd%3A57883/datastream/PDF/view
!!!URL-scan: https://polish.musicsources.pl/pl/lokalizacje/galeria/klocki-introligatorskie/655 @EN{Scan on Polish Music Sources Website} @PL{Skany w portalu Dziedzictwo Muzyki Polskiej w otwartym dostępie}
!!!ONB-nifc: UWAGA: zbiór na stronach: Canto: s. 706-716, Alto: s. 554-564, Tenore: s. 402-412, Basso: s.250-260, Quinto: s. 98-108, Sesto: s. 16-26. Uwaga: utwory podzielone wg tytułów w spisach treści dostępnych na końcu każdej księgi głosowej.
!!!AIN: 1 alto 1 bass 2 soprn 2 tenor
!!!key: d:dor
**kern	**text	**kern	**text	**kern	**text	**kern	**text	**kern	**text	**kern	**text
*part6	*part6	*part5	*part5	*part4	*part4	*part3	*part3	*part2	*part2	*part1	*part1
*staff6	*staff6	*staff5	*staff5	*staff4	*staff4	*staff3	*staff3	*staff2	*staff2	*staff1	*staff1
*I"BASSO	*	*I"SESTO	*	*I"TENORE	*	*I"ALTO	*	*I"QVINTO	*	*I"CANTO	*
*I'B	*	*I'S	*	*I'T	*	*I'A	*	*I'V	*	*I'C	*
*Ibass	*	*Itenor	*	*Itenor	*	*Ialto	*	*Isoprn	*	*Isoprn	*
*ICvox	*	*ICvox	*	*ICvox	*	*ICvox	*	*Cvox	*	*ICvox	*
*clefF3	*	*clefC3	*	*clefC3	*	*clefC2	*	*clefG2	*	*clefG2	*
*k[b-]	*	*k[b-]	*	*k[b-]	*	*k[b-]	*	*k[b-]	*	*k[b-]	*
*d:dor	*	*d:dor	*	*d:dor	*	*d:dor	*	*d:dor	*	*d:dor	*
*M4/4	*	*M4/4	*	*M4/4	*	*M4/4	*	*M4/4	*	*M4/4	*
*met(c)	*	*met(c)	*	*met(c)	*	*met(c)	*	*met(c)	*	*met(c)	*
=1-	=1-	=1-	=1-	=1-	=1-	=1-	=1-	=1-	=1-	=1-	=1-
!LO:TX:b:t=Di nettare.	!	!LO:TX:b:t=Di nettare.	!	!	!	!	!	!	!	!	!
!LO:TX:a:t=Prima parte.	!	!LO:TX:a:t=Prima parte.	!	!LO:TX:a:t=Prima parte.	!	!LO:TX:a:t=Prima parte.	!	!LO:TX:a:t=Prima parte.	!	!LO:TX:a:t=Prima parte.	!
00r	.	00r	.	1d	DI	1f	DI	1a	DI	1dd	DI
=2-	=2-	=2-	=2-	=2-	=2-	=2-	=2-	=2-	=2-	=2-	=2-
.	.	.	.	2.A/	net-	2.e/	net-	2.a/	net-	2.cc#X\	net-
.	.	.	.	4A/	-ta-	4e/	-ta-	4a/	-ta-	4cc#\	-ta-
=3-	=3-	=3-	=3-	=3-	=3-	=3-	=3-	=3-	=3-	=3-	=3-
.	.	.	.	2A/	-re	2e/	-re	2a/	-re	2ccny\	-re
!	!	!	!	!	!	!	!	!LO:N:acc=#	!	!	!
.	.	.	.	2G/	amo-	2g\	amo-	2bn/	amo-	2dd\	amo-
=4-	=4-	=4-	=4-	=4-	=4-	=4-	=4-	=4-	=4-	=4-	=4-
.	.	.	.	1c	-ro-	1g	-ro-	2cc\	-ro-	1ee	-ro-
.	.	.	.	.	.	.	.	2cc\	-ſo	.	.
=5-	=5-	=5-	=5-	=5-	=5-	=5-	=5-	=5-	=5-	=5-	=5-
00r	.	00r	.	1B-	-ſo	2b-\	-ſo	4r	.	4.ff\	-ſo
.	.	.	.	.	.	.	.	4.ff\	e-	.	.
.	.	.	.	.	.	.	.	.	.	8ee\	e-
.	.	.	.	.	.	1f\	ebro	.	.	4.dd\	.
.	.	.	.	.	.	.	.	8ee\	.	.	.
.	.	.	.	.	.	.	.	4.dd\	.	.	.
.	.	.	.	.	.	.	.	.	.	8cc\	.
=6-	=6-	=6-	=6-	=6-	=6-	=6-	=6-	=6-	=6-	=6-	=6-
.	.	.	.	1.B-	ebro	.	.	.	.	4.b-/	.
.	.	.	.	.	.	.	.	8cc\	.	.	.
.	.	.	.	.	.	.	.	4.b-/	.	.	.
.	.	.	.	.	.	.	.	.	.	8cc\	.
.	.	.	.	.	.	2b-\	la-	.	.	8dd\	.
.	.	.	.	.	.	.	.	8cc\	.	8ee\	.
.	.	.	.	.	.	.	.	8dd\	.	4ff\	bro
.	.	.	.	.	.	.	.	8ee\	.	.	.
=7-	=7-	=7-	=7-	=7-	=7-	=7-	=7-	=7-	=7-	=7-	=7-
.	.	.	.	.	.	4.b-\	-men-	4ff\	.	4dd\	la
!	!	!	!	!	!	!	!	!LO:SIC:v:t=custos gg	!	!	!
.	.	.	.	.	.	.	.	4dd\	bro-	4.gg\	.
.	.	.	.	.	.	8a\	.	.	.	.	.
!	!	!	!	!	!	!	!	!LO:LB:g=original	!	!	!
.	.	.	.	1c\	la	1g\	.	4.gg\	-la	.	.
.	.	.	.	.	.	.	.	.	.	8ff\	.
.	.	.	.	.	.	.	.	.	.	8ee\	.
!	!	!	!	!	!	!	!	!	!	!LO:SIC:v:t=custos cc	!
.	.	.	.	.	.	.	.	8ff\	.	8dd\	.
=8-	=8-	=8-	=8-	=8-	=8-	=8-	=8-	=8-	=8-	=8-	=8-
!	!	!	!	!	!	!	!	!	!	!LO:LB:g=original	!
.	.	.	.	.	.	.	.	8ee\	.	8cc\	.
.	.	.	.	.	.	.	.	8dd\	.	8dd\	.
.	.	.	.	.	.	.	.	8cc\	.	8ee\	.
.	.	.	.	.	.	.	.	8dd\	.	8ff\	.
.	.	.	.	8c/	men	2g\	te	8ee\	.	4gg\	-men-
.	.	.	.	8d\	.	.	.	8ff\	.	.	.
.	.	.	.	8e\	.	.	.	4gg\	-men-	8g/	.
.	.	.	.	8f\	.	.	.	.	.	8a/	.
=9-	=9-	=9-	=9-	=9-	=9-	=9-	=9-	=9-	=9-	=9-	=9-
00r	.	00r	.	4.g\	.	4r	.	8g/	.	8b-/	.
.	.	.	.	.	.	.	.	8a/	.	8cc\	.
.	.	.	.	.	.	4g\	la-	8b-/	.	8dd\	.
.	.	.	.	16f\	.	.	.	8cc\	.	8ee\	.
!	!	!	!	!LO:SIC:v:t=custos D	!	!	!	!	!	!	!
.	.	.	.	16e\	.	.	.	.	.	.	.
!	!	!	!	!LO:LB:g=original	!	!	!	!	!	!	!
.	.	.	.	4.d\	.	8a\	-men-	8dd\	.	4.ff\	.
.	.	.	.	.	.	8g\	.	8ee\	.	.	.
.	.	.	.	.	.	8f\	.	2ff\	.	.	.
!	!	!	!	!	!	!LO:SIC:v:t=custos a	!	!	!	!	!
.	.	.	.	16c\	.	8g\	.	.	.	16ee\	.
.	.	.	.	16B-/	.	.	.	.	.	16dd\	.
=10-	=10-	=10-	=10-	=10-	=10-	=10-	=10-	=10-	=10-	=10-	=10-
!	!	!	!	!	!	!LO:LB:g=original	!	!	!	!	!
.	.	.	.	1A	.	1a	.	.	.	4cc#X\	.
.	.	.	.	.	.	.	.	8ee\	.	2dd\	.
.	.	.	.	.	.	.	.	8dd\	.	.	.
.	.	.	.	.	.	.	.	2ee\	.	.	.
.	.	.	.	.	.	.	.	.	.	4cc#X\	te
=11-	=11-	=11-	=11-	=11-	=11-	=11-	=11-	=11-	=11-	=11-	=11-
.	.	.	.	2d\	-te	2f\	-te	2a/	te	2dd\	Ra-
.	.	.	.	4.c/	Rap-	4.g\	Rap-	4.cc\	Ra-	4.ee\	-pto
.	.	.	.	8A/	-to	8a\	-to	8cc\	-pto	8ff#X\	ſu-
=12-	=12-	=12-	=12-	=12-	=12-	=12-	=12-	=12-	=12-	=12-	=12-
.	.	.	.	2G/	ſui	2b-\	ſui	2dd\	ſui-	2gg\	-i
.	.	.	.	4r	.	4r	.	4r	.	4r	.
.	.	.	.	2F/	ne	2a\	ne	2ff\	ne	2ccny\	ne
=13-	=13-	=13-	=13-	=13-	=13-	=13-	=13-	=13-	=13-	=13-	=13-
00r	.	00r	.	.	.	.	.	.	.	.	.
.	.	.	.	4F/	so	4a\	so	4ff\	so	4cc\	so
!	!	!	!	!	!	!	!	!LO:SIC:v:t=custos gg	!	!	!
.	.	.	.	1B-/	com'	1b-\	com'	1ff\	com'	1dd\	com'
=14-	=14-	=14-	=14-	=14-	=14-	=14-	=14-	=14-	=14-	=14-	=14-
.	.	.	.	.	.	.	.	.	.	.	.
!	!	!	!	!	!	!	!	!LO:LB:g=original	!	!	!
.	.	.	.	4G/	in	4b-\	in	4gg\	in	4dd\	in
.	.	.	.	2B-/	-chiu-	2b-\	-chiu-	2ff\	chiu-	2dd\	chiu-
=15-	=15-	=15-	=15-	=15-	=15-	=15-	=15-	=15-	=15-	=15-	=15-
.	.	.	.	.	.	.	.	.	.	.	.
!	!	!	!	!	!	!	!	!	!	!LO:SIC:v:t=custos a	!
.	.	.	.	4c/	-ſa	4g\	-ſa	4ee\	-ſa	4cc\	-ſa
!	!	!	!	!	!	!	!	!	!	!LO:LB:g=original	!
.	.	.	.	1d\	chio-	1f#X\	chio-	1dd\	chio-	1a/	chio-
=16-	=16-	=16-	=16-	=16-	=16-	=16-	=16-	=16-	=16-	=16-	=16-
.	.	.	.	.	.	.	.	.	.	.	.
.	.	.	.	2d\	-ſtra	2f#\	-ſtra	2dd\	-ſtra	2a/	-ſtra
=17-	=17-	=17-	=17-	=17-	=17-	=17-	=17-	=17-	=17-	=17-	=17-
00r	.	00r	.	00r	.	0r	.	4g/	E	4b-/	E
.	.	.	.	.	.	.	.	4a/	due	4cc\	due
.	.	.	.	.	.	.	.	4b-/	bel-	4dd\	bel-
.	.	.	.	.	.	.	.	8b-/	-le	8dd\	-le
.	.	.	.	.	.	.	.	8cc\	d'A-	8ee\	d'A-
=18-	=18-	=18-	=18-	=18-	=18-	=18-	=18-	=18-	=18-	=18-	=18-
.	.	.	.	.	.	.	.	4dd\	-mor	4ffny\	-mor
.	.	.	.	.	.	.	.	4ff\	guer-	4dd\	guer-
.	.	.	.	.	.	.	.	4ee\	-rie-	4cc\	-rie-
.	.	.	.	.	.	.	.	4dd\	-rier'	4b-/	-r'
=19-	=19-	=19-	=19-	=19-	=19-	=19-	=19-	=19-	=19-	=19-	=19-
.	.	.	.	.	.	1r	.	8cc\	in	8a/	in
.	.	.	.	.	.	.	.	8b-/	gio-	8g/	gio-
.	.	.	.	.	.	.	.	8a/	.	8f/	.
.	.	.	.	.	.	.	.	8b-/	.	8g/	.
.	.	.	.	.	.	.	.	8cc\	.	8a/	.
.	.	.	.	.	.	.	.	8dd\	.	8b-/	.
.	.	.	.	.	.	.	.	8ee\	.	8cc\	.
.	.	.	.	.	.	.	.	8ff\	.	8a/	.
=20-	=20-	=20-	=20-	=20-	=20-	=20-	=20-	=20-	=20-	=20-	=20-
!	!	!	!	!	!	!	!	!	!	!LO:N:acc=#	!
.	.	.	.	.	.	1g	Vi-	2gg\	.	4bn/	.
.	.	.	.	.	.	.	.	.	.	2cc\	.
.	.	.	.	.	.	.	.	2dd\	ſtra	.	.
!	!	!	!	!	!	!	!	!	!	!LO:N:acc=#	!
.	.	.	.	.	.	.	.	.	.	4bn/	.
=21-	=21-	=21-	=21-	=21-	=21-	=21-	=21-	=21-	=21-	=21-	=21-
00r	.	00r	.	0r	.	2a\	-di	4r	.	2cc\	ſtra
.	.	.	.	.	.	.	.	4.ff\	Vi-	.	.
.	.	.	.	.	.	2b-\	con	.	.	4r	.
.	.	.	.	.	.	.	.	8ee\	-di	.	.
!	!	!	!	!	!	!	!	!LO:SIC:v:t=custos cc	!	!	!
.	.	.	.	.	.	.	.	4dd\	con	4.ff\	Vi-
=22-	=22-	=22-	=22-	=22-	=22-	=22-	=22-	=22-	=22-	=22-	=22-
!	!	!	!	!	!	!	!	!LO:LB:g=original	!	!	!
.	.	.	.	.	.	1fny	l'ar-	4cc\	l'ar-	.	.
.	.	.	.	.	.	.	.	.	.	8ee\	-di
!	!	!	!	!	!	!	!	!	!	!LO:SIC:v:t=custos cc	!
.	.	.	.	.	.	.	.	2b-/	.	4dd\	con
!	!	!	!	!	!	!	!	!	!	!LO:LB:g=original	!
.	.	.	.	.	.	.	.	.	.	2cc\	l'ar-
.	.	.	.	.	.	.	.	4a/	.	.	.
=23-	=23-	=23-	=23-	=23-	=23-	=23-	=23-	=23-	=23-	=23-	=23-
.	.	.	.	4r	.	2B-/	-me	2b-/	me	2dd\	-me
.	.	.	.	4B-/	ond'-	.	.	.	.	.	.
.	.	.	.	2.B-/	-egli 	4r	.	4r	.	4r	.
!	!	!	!	!	!	!LO:SIC:v:t=custos b-	!	!	!	!	!
.	.	.	.	.	.	4b-\	ond'-	4ff\	ond'-	4dd\	ond'-
=24-	=24-	=24-	=24-	=24-	=24-	=24-	=24-	=24-	=24-	=24-	=24-
!	!	!	!	!	!	!LO:LB:g=original	!	!	!	!	!
.	.	.	.	.	.	4b-\	-egli	4ff\	-egli	4dd\	-egli
.	.	.	.	4F/	e	4a\	e	4ff\	e	4cc\	e
.	.	.	.	1F/	ſi	1a\	ſi	1ff\	ſi	1cc\	ſi
=25-	=25-	=25-	=25-	=25-	=25-	=25-	=25-	=25-	=25-	=25-	=25-
1r	.	1r	.	.	.	.	.	.	.	.	.
!	!	!	!	!LO:SIC:v:t=custos A	!	!	!	!	!	!	!
.	.	.	.	2G/	-poſ-	2g\	poſ-	4dd\	poſ-	2b-ny/	poſ-
.	.	.	.	.	.	.	.	2ee\	ſien	.	.
=26-	=26-	=26-	=26-	=26-	=26-	=26-	=26-	=26-	=26-	=26-	=26-
!	!	!	!	!LO:LB:g=original	!	!	!	!	!	!	!
1r	.	1ryy	.	1A	ſen-	4.f\	-ſien-	.	.	1a	-ſien-
.	.	.	.	.	.	.	.	2dd\	.	.	.
.	.	.	.	.	.	16e/	.	.	.	.	.
.	.	.	.	.	.	16d/	.	.	.	.	.
.	.	.	.	.	.	2e/	.	.	.	.	.
.	.	.	.	.	.	.	.	4cc#X\	.	.	.
=27-	=27-	=27-	=27-	=27-	=27-	=27-	=27-	=27-	=27-	=27-	=27-
1r	.	1r	.	1d	-te	1f	-te	0dd	-te	0a	-te
=28-	=28-	=28-	=28-	=28-	=28-	=28-	=28-	=28-	=28-	=28-	=28-
1D	Vi-	2r	.	1f	Vi-	2r	.	.	.	.	.
.	.	1d\	Vi-	.	.	1a\	Vi-	.	.	.	.
=29-	=29-	=29-	=29-	=29-	=29-	=29-	=29-	=29-	=29-	=29-	=29-
1A	-di	.	.	1e	-di	.	.	1r	.	0r	.
.	.	2c#X/	-di	.	.	2a\	-di	.	.	.	.
=30-	=30-	=30-	=30-	=30-	=30-	=30-	=30-	=30-	=30-	=30-	=30-
4D/	ch'	4d\	ch'	4f\	ch'	4a\	ch'	1r	.	.	.
2D/	in	2d\	in	2f\	in	2a\	in	.	.	.	.
4C/	dolce	4e\	dolce	4g\	dolce	4cc\	dol-	.	.	.	.
=31-	=31-	=31-	=31-	=31-	=31-	=31-	=31-	=31-	=31-	=31-	=31-
4F/	arrin-	1f	arrin-	1a	arrin-	1cc	-ce	2r	.	1r	.
4F/	-go	.	.	.	.	.	.	.	.	.	.
4.A\	alter-	.	.	.	.	.	.	4r	.	.	.
.	.	.	.	.	.	.	.	4ccny\	al-	.	.
8B-\	-ra	.	.	.	.	.	.	.	.	.	.
=32-	=32-	=32-	=32-	=32-	=32-	=32-	=32-	=32-	=32-	=32-	=32-
!	!	!LO:SIC:v:t=custos c	!	!	!	!	!	!	!	!	!
1c	men-	1e	-go	2g\	-go	4c/	arrin-	4.ee\	-te-	4r	.
.	.	.	.	.	.	4.e/	-go	.	.	4cc\	al-
.	.	.	.	.	.	.	.	8ff\	-ra-	.	.
.	.	.	.	4r	.	.	.	4gg\	-men-	4.ee\	-te-
.	.	.	.	.	.	8f\	al-	.	.	.	.
.	.	.	.	4c/	al-	4.g\	-te-	4gg\	-te	.	.
.	.	.	.	.	.	.	.	.	.	8ff\	-ra-
=33-	=33-	=33-	=33-	=33-	=33-	=33-	=33-	=33-	=33-	=33-	=33-
!LO:SIC:v:t=custos G	!	!	!	!	!	!	!	!	!	!	!
!	!	!LO:LB:g=original	!	!	!	!	!	!	!	!	!
1C	-te	4r	.	4.e\	-te-	.	.	2r	.	4gg\	-men-
.	.	.	.	.	.	8f\	-ra-	.	.	.	.
.	.	4cny/	al-	.	.	8e/	-men-	.	.	4gg\	-te
.	.	.	.	8f\	-ra-	8d/	.	.	.	.	.
!	!	!	!	!	!	!LO:SIC:v:t=custos d	!	!	!	!	!
.	.	4.e\	-te-	4g\	-men-	2c/	.	4r	.	2r	.
.	.	.	.	4g\	-te	.	.	4g/	al-	.	.
.	.	8f\	-ra-	.	.	.	.	.	.	.	.
=34-	=34-	=34-	=34-	=34-	=34-	=34-	=34-	=34-	=34-	=34-	=34-
4r	.	4g\	-men-	4G/	al-	1d	te	4.b-/	-te-	2r	.
!LO:LB:g=original	!	!	!	!	!	!	!	!	!	!	!
4G\	al-	4g\	-te	4.B-/	-te-	.	.	.	.	.	.
.	.	.	.	.	.	.	.	8cc\	-ra-	.	.
!	!	!	!	!	!	!	!	!LO:SIC:v:t=custos dd	!	!	!
4.B-\	-te-	2r	.	.	.	.	.	2dd\	-men-	4r	.
.	.	.	.	8c/	-ra-	.	.	.	.	.	.
.	.	.	.	4d\	-men-	.	.	.	.	4dd\	al-
8c\	-ra-	.	.	.	.	.	.	.	.	.	.
=35-	=35-	=35-	=35-	=35-	=35-	=35-	=35-	=35-	=35-	=35-	=35-
!	!	!	!	!LO:SIC:v:t=custos f	!	!	!	!	!	!	!
!	!	!	!	!	!	!	!	!LO:LB:g=original	!	!	!
1d	-men-	2f\	Fer	1D	-te	4r	.	2dd\	te	4.ff\	-te-
.	.	.	.	.	.	4a\	Fer	.	.	.	.
.	.	.	.	.	.	.	.	.	.	8gg\	-ra-
.	.	4f\	pria	.	.	4a\	pria	2r	.	4aa\	-men-
.	.	4f\	di	.	.	4a\	di	.	.	4aa\	-te
=36-	=36-	=36-	=36-	=36-	=36-	=36-	=36-	=36-	=36-	=36-	=36-
!	!	!	!	!LO:LB:g=original	!	!	!	!	!	!	!
1D	te	4f\	lor	1r	.	4a\	lor	4r	.	4r	.
.	.	4f\	bel-	.	.	4a\	bel-	4aa\	Fer	4ff\	Fer
.	.	8f\	-ta	.	.	8a\	-ta	4aa\	pria	4ff\	pria
.	.	8e\	leg-	.	.	8g\	leg-	.	.	.	.
!	!	!	!	!	!	!	!	!	!	!LO:SIC:v:t=custos ff	!
.	.	8d\	-gia-	.	.	8f\	-gia-	4aa\	di	4ff\	di
.	.	8c\	-dra	.	.	8e/	-dra	.	.	.	.
=37-	=37-	=37-	=37-	=37-	=37-	=37-	=37-	=37-	=37-	=37-	=37-
!	!	!	!	!	!	!	!	!	!	!LO:LB:g=original	!
4r	.	1d	moſ-	4r	.	4.f\	mo-	4aa\	lor	4ff\	lor
4d\	Fer	.	.	4f\	Fer	.	.	4aa\	bel-	4ff\	bel-
.	.	.	.	.	.	8g\	.	.	.	.	.
4d\	pria	.	.	4f\	pria	2a\	.	8aa\	-ta	8ff\	-ta
.	.	.	.	.	.	.	.	8gg\	leg-	8ee\	leg-
4d\	di-	.	.	4f\	di-	.	.	8ff\	-gia-	8dd\	-gia-
.	.	.	.	.	.	.	.	8ee\	-dra	8cc\	-dra
=38-	=38-	=38-	=38-	=38-	=38-	=38-	=38-	=38-	=38-	=38-	=38-
4d\	-lor	2D/	-tra	4f\	-lor	2a\	-ſtra	1ff	moſ-	1dd	moſ-
4d\	bel-	.	.	4f\	bel-	.	.	.	.	.	.
8d\	-ta	2r	.	8f\	-ta	2r	.	.	.	.	.
8c\	leg-	.	.	8e\	leg-	.	.	.	.	.	.
8B-\	-gia-	.	.	8d\	-gia-	.	.	.	.	.	.
8A\	-dra	.	.	8c/	-dra	.	.	.	.	.	.
=39-	=39-	=39-	=39-	=39-	=39-	=39-	=39-	=39-	=39-	=39-	=39-
1B-	mo-	4r	.	1d	mo-	4r	.	1ff	-tra	1dd	-tra
.	.	4d\	Fer	.	.	4f\	Fer	.	.	.	.
.	.	4d\	pria	.	.	4f\	pria	.	.	.	.
!	!	!LO:SIC:v:t=custos d	!	!	!	!	!	!	!	!	!
.	.	4d\	di	.	.	4f\	di	.	.	.	.
=40-	=40-	=40-	=40-	=40-	=40-	=40-	=40-	=40-	=40-	=40-	=40-
!	!	!LO:LB:g=original	!	!	!	!	!	!	!	!	!
1BB-	ſtra	4d\	lor	1B-	ſtra	4f\	lor	4r	.	4r	.
.	.	4d\	bel-	.	.	4f\	bel-	4ff\	Fer	4dd\	Fer
.	.	8d\	-ta	.	.	8f\	-ta	4ff\	pria	4dd\	pria
.	.	8c/	leg-	.	.	8e/	leg-	.	.	.	.
.	.	8B-/	-gia-	.	.	8d/	-gia-	4ff\	di	4dd\	di
.	.	8A/	-dra	.	.	8c/	-dra	.	.	.	.
=41-	=41-	=41-	=41-	=41-	=41-	=41-	=41-	=41-	=41-	=41-	=41-
4r	.	1B-	mo-	4r	.	4.d/	mo-	4ff\	lor	4dd\	lor
4B-\	Fer	.	.	4d\	Fer	.	.	4ff\	bel-	4dd\	bel-
.	.	.	.	.	.	8e\	.	.	.	.	.
4B-\	pria	.	.	4d\	pria	2f\	.	8ff\	-ta	8dd\	-ta
.	.	.	.	.	.	.	.	8ee\	leg-	8cc\	leg-
!LO:SIC:v:t=custos B-	!	!	!	!	!	!	!	!	!	!	!
4B-\	di	.	.	4d\	di	.	.	8dd\	-gia-	8b-\	-gia-
.	.	.	.	.	.	.	.	8cc\	-dra	8a/	-dra
=42-	=42-	=42-	=42-	=42-	=42-	=42-	=42-	=42-	=42-	=42-	=42-
!LO:LB:g=original	!	!	!	!	!	!	!	!	!	!	!
4B-\	lor	2d\	ſtra	4d\	lor	2f\	-ſtra	2dd\	mo-	2b-/	mo-
4B-\	bel-	.	.	4d\	bel-	.	.	.	.	.	.
!	!	!	!	!	!	!	!	!LO:SIC:v:t=custos dd	!	!	!
8B-\	-ta	4r	.	8d\	-ta	4r	.	2dd\	-ſtra	2b-/	-ſtra
8A\	leg-	.	.	8c/	leg-	.	.	.	.	.	.
8G\	-gia-	4d\	Fer	8B-/	-gia-	4b-\	Fer	.	.	.	.
8F/	-dra	.	.	8A/	-dra	.	.	.	.	.	.
=43-	=43-	=43-	=43-	=43-	=43-	=43-	=43-	=43-	=43-	=43-	=43-
!	!	!	!	!	!	!	!	!LO:LB:g=original	!	!	!
2G\	mo-	4d\	pria	2B-/	mo-	4b-\	pria	4r	.	4r	.
.	.	4d\	di	.	.	4b-\	di	4dd\	Fer	4g/	Fer
4G\	-ſtra	4d\	lor	4B-/	-ſtra	4b-\	lor	4dd\	pria	4g/	pria
!	!	!	!	!LO:SIC:v:t=custos B-	!	!	!	!	!	!	!
4G\	Fer	4d\	bel-	4B-/	Fer	4b-\	bel-	4dd\	di	4g/	di
=44-	=44-	=44-	=44-	=44-	=44-	=44-	=44-	=44-	=44-	=44-	=44-
!	!	!	!	!LO:LB:g=original	!	!	!	!	!	!	!
4G\	pria	8d\	-ta	4B-/	pria	8b-\	-ta	4dd\	lor	4g/	lor
.	.	8c/	leg-	.	.	8a\	leg-	.	.	.	.
!	!	!	!	!	!	!	!	!	!	!LO:SIC:v:t=custos b-	!
4G\	di	8B-/	-gia-	4B-/	di	8g\	-gia-	4dd\	bel-	4b-/	bel-
.	.	8c/	-dra	.	.	8f\	-dra	.	.	.	.
!	!	!	!	!	!	!	!	!	!	!LO:LB:g=original	!
4G\	lor	2d\	mo-	4B-/	lor	2g\	mo-	8dd\	-ta	8b-/	-ta
.	.	.	.	.	.	.	.	8cc\	leg-	8a/	leg-
4G\	bel-	.	.	4B-/	bel-	.	.	8b-/	-gia-	8b-/	-gia-
.	.	.	.	.	.	.	.	8a/	-dra	8cc\	-dra
=45-	=45-	=45-	=45-	=45-	=45-	=45-	=45-	=45-	=45-	=45-	=45-
8G\	-ta	4G/	-ſtra	8B-/	-ta	4g\	ſtra	2b-/	mo-	4dd\	mo-
8F/	leg-	.	.	8A/	leg-	.	.	.	.	.	.
8E-X/	-gia-	4B-/	Fer	8G/	-gia-	4g\	Fer	.	.	4ee-X\	-ſtra
8D/	-dra	.	.	8F/	-dra	.	.	.	.	.	.
2E-X/	mo-	4B-/	pria	2G/	mo-	4g\	pria	4b-/	-ſtra	4r	.
!	!	!LO:SIC:v:t=custos B-	!	!	!	!LO:SIC:v:t=custos g	!	!	!	!	!
.	.	4B-/	di	.	.	4g\	di	4b-/	Fer	4gg\	/Fer
=46-	=46-	=46-	=46-	=46-	=46-	=46-	=46-	=46-	=46-	=46-	=46-
!	!	!	!	!	!	!LO:LB:g=original	!	!	!	!	!
!	!	!LO:LB:g=original	!	!	!	!	!	!	!	!	!
4Eny/	-ſtra	4B-/	lor	4G/	-ſtra	4g\	lor	4b-/	pria	4gg\	pria
4E/	Fer	4B-/	bel-	4G/	Fer	4g\	bel-	4b-/	di	4gg\	di
4E/	pria	8B-/	-ta	4G/	pria	8g\	-ta	4b-/	lor	4gg\	lor
.	.	8A/	leg-	.	.	8f\	leg-	.	.	.	.
!LO:SIC:v:t=custos E	!	!	!	!	!	!	!	!	!	!	!
4E/	di	8G/	-gia-	4g\	di	8e-X/	-gia-	4b-/	bel-	4gg\	bel-
.	.	8A/	-dra	.	.	8d/	-dra	.	.	.	.
=47-	=47-	=47-	=47-	=47-	=47-	=47-	=47-	=47-	=47-	=47-	=47-
!LO:LB:g=original	!	!	!	!	!	!	!	!	!	!	!
4E/	lor	2B-/	mo-	4g\	lor	2e-/	mo-	8b-/	-ta	8gg\	-ta
.	.	.	.	.	.	.	.	8a/	leg-	8ff\	leg-
4E/	bel-	.	.	4g\	bel-	.	.	8g/	-gia-	8ee-X\	-gia-
.	.	.	.	.	.	.	.	8f/	-dra	8dd\	-dra
8E/	-ta	4B-/	ſtra	8g\	-ta	4e-/	ſtra	2g/	mo-	2ee-X\	mo-
8D/	leg-	.	.	8f\	leg-	.	.	.	.	.	.
8C/	-gia-	4c/	di	8e-X\	-gia-	4e-/	di	.	.	.	.
!	!	!	!	!LO:SIC:v:t=custos c	!	!	!	!	!	!	!
8BB-/	-dra	.	.	8d\	-dra	.	.	.	.	.	.
=48-	=48-	=48-	=48-	=48-	=48-	=48-	=48-	=48-	=48-	=48-	=48-
!	!	!	!	!LO:LB:g=original	!	!	!	!	!	!	!
1C	mo-	4c/	lor	1c	mo-	4e-X/	lor	4g/	ſtra	4eeny\	ſtra/
!	!	!	!	!	!	!	!	!LO:SIC:v:t=custos gg	!	!	!
.	.	4G/	bel-	.	.	4e-/	bel-	4gg\	di	4ee\	di
!	!	!	!	!	!	!	!	!LO:LB:g=original	!	!	!
.	.	8c/	-ta	.	.	8e-/	-ta	4gg\	lor	4ee\	lor
.	.	8d\	leg-	.	.	8d/	leg-	.	.	.	.
.	.	8e-X\	-gia-	.	.	8c/	-gia-	4gg\	bel-	4ee\	bel-
.	.	8f\	-dra	.	.	8d/	-dra	.	.	.	.
=49-	=49-	=49-	=49-	=49-	=49-	=49-	=49-	=49-	=49-	=49-	=49-
1C	ſtra	1g	mo-	1c	ſtra	2e-X/	mo-	8gg\	-ta	8ee\	-ta
.	.	.	.	.	.	.	.	8ff\	leg-	8dd\	leg-
.	.	.	.	.	.	.	.	8ee-X\	-gia-	8cc\	-gia-
.	.	.	.	.	.	.	.	8dd\	-dra	8b-\	-dra
.	.	.	.	.	.	2e-/	-ſtra	2ee-X\	mo-	1cc\	mo-
=50-	=50-	=50-	=50-	=50-	=50-	=50-	=50-	=50-	=50-	=50-	=50-
1G	Poi	1g	ſtra	1d	Poi	1r	.	1dd	ſtra	.	.
!	!	!	!	!	!	!	!	!	!	!LO:SIC:v:t=custos cc	!
!	!	!	!	!	!	!	!	!	!	!LO:N:acc=#	!
.	.	.	.	.	.	.	.	.	.	2bn/	-ſtra
=51-	=51-	=51-	=51-	=51-	=51-	=51-	=51-	=51-	=51-	=51-	=51-
!	!	!LO:SIC:v:t=custos g	!	!	!	!	!	!	!	!	!
00r	.	1.c	Poi	00r	.	1.g	Poi	2r	.	2r	.
!	!	!	!	!	!	!	!	!	!	!LO:LB:g=original	!
.	.	.	.	.	.	.	.	1eeny\	Poi	1cc\	Poi
=52-	=52-	=52-	=52-	=52-	=52-	=52-	=52-	=52-	=52-	=52-	=52-
!	!	!	!	!	!	!LO:SIC:v:t=custos cc	!	!	!	!	!
.	.	.	.	.	.	.	.	.	.	.	mo-
.	.	2r	.	.	.	2r	.	4r	.	2f/	-uen-
.	.	.	.	.	.	.	.	2ff\	mo-	.	.
=53-	=53-	=53-	=53-	=53-	=53-	=53-	=53-	=53-	=53-	=53-	=53-
.	.	1r	.	.	.	2r	.	.	.	4.b-/	-do-
.	.	.	.	.	.	.	.	4.dd\	-uen-	.	.
.	.	.	.	.	.	.	.	.	.	8b-/	-ſi
.	.	.	.	.	.	2r	.	.	.	2a/	in-
.	.	.	.	.	.	.	.	8cc\	do	.	.
.	.	.	.	.	.	.	.	2cc\	-ſi in	.	.
=54-	=54-	=54-	=54-	=54-	=54-	=54-	=54-	=54-	=54-	=54-	=54-
.	.	1r	.	.	.	1r	.	.	.	2dd\	-con-
!	!	!	!	!	!	!	!	!LO:N:acc=#	!	!	!
.	.	.	.	.	.	.	.	4bn/	con-	.	.
.	.	.	.	.	.	.	.	2cc\	-tra	2cc\	-tra
=55-	=55-	=55-	=55-	=55-	=55-	=55-	=55-	=55-	=55-	=55-	=55-
!	!	!	!	!	!	!LO:LB:g=original	!	!	!	!	!
!	!	!LO:LB:g=original	!	!	!	!	!	!	!	!	!
4.c\	oue	4.g\	oue	4.eny\	oue	4.cc\	oue	0r	.	0r	.
!LO:TX:t=P:problem: "3" zapisane przy nucie.	!	!	!	!	!	!	!	!	!	!	!
!	!	!LO:TX:t=P:problem: "3" zapisane przy nucie.	!	!	!	!	!	!	!	!	!
!	!	!	!	!LO:TX:t=P:problem: "3" zapisane przy nucie.	!	!	!	!	!	!	!
!	!	!	!	!	!	!LO:TX:t=P:problem: "3" zapisane przy nucie.	!	!	!	!	!
8c\	s'i-	8g\	s'i-	8e\	s'i-	8cc\	s'i-	.	.	.	.
8cyy\	.	8gyy\	.	2r	.	8cc\yy	.	.	.	.	.
8cyy\	.	8gyy\	.	.	.	8cc\yy	.	.	.	.	.
4G\	-no	4g\	-no	.	.	4b-\	-no	.	.	.	.
=56-	=56-	=56-	=56-	=56-	=56-	=56-	=56-	=56-	=56-	=56-	=56-
4.A\	ſtra	4.eny\	ſtra	4d\	-no-	4.a\	ſtra	.	.	.	.
.	.	.	.	4.c#X/	-ſtra	.	.	.	.	.	.
!LO:TX:t=P:problem: "3" zapisane przy nucie.	!	!	!	!	!	!	!	!	!	!	!
!	!	!LO:TX:t=P:problem: "3" zapisane przy nucie.	!	!	!	!	!	!	!	!	!
!	!	!	!	!	!	!LO:TX:t=P:problem: "3" zapisane przy nucie.	!	!	!	!	!
8A\	.	8e\	.	.	.	8a\	.	.	.	.	.
8Ayy\	.	8eyy\	.	.	.	8a\yy	.	.	.	.	.
8Ayy\j	.	8eyy\	.	8c#/	.	8a\yy	.	.	.	.	.
!	!	!	!	!LO:TX:t=P:problem: "3" zapisane przy nucie.	!	!	!	!	!	!	!
4B-\	La	4d\	La	4d\	La	4g\	La	.	.	.	.
=57-	=57-	=57-	=57-	=57-	=57-	=57-	=57-	=57-	=57-	=57-	=57-
2A\	boc-	2e\	boc-	2c#X/	boc-	2a\	boc-	1r	.	2r	.
2D/	-ca	2f\	-ca	2d\	-ca	2a\	-ca	.	.	4r	.
.	.	.	.	.	.	.	.	.	.	4.dd\	ſi
=58-	=58-	=58-	=58-	=58-	=58-	=58-	=58-	=58-	=58-	=58-	=58-
4.B-\	ſi	2r	.	4r	.	4r	.	4.dd\	ſi	.	.
.	.	.	.	.	.	.	.	.	.	8ee\	fe-
.	.	.	.	4.B-/	ſi	4.d/	ſi	.	.	2ff\	-rir
8c\	fe-	.	.	.	.	.	.	8ee\	fe-	.	.
!LO:SIC:v:t=custos B-	!	!	!	!	!	!	!	!	!	!	!
2d\	-rir	4.B-/	ſi	.	.	.	.	2ff\	-rir	.	.
.	.	.	.	8cny/	fe-	8eny/	fe-	.	.	.	.
.	.	.	.	2d\	-rir	2f\	-rir	.	.	4.dd\	ſi
.	.	8c/	fe-	.	.	.	.	.	.	.	.
=59-	=59-	=59-	=59-	=59-	=59-	=59-	=59-	=59-	=59-	=59-	=59-
!LO:LB:g=original	!	!	!	!	!	!	!	!	!	!	!
4.B-\	ſi	2d\	-rir	.	.	.	.	4.dd\	ſi	.	.
.	.	.	.	.	.	.	.	.	.	8ee\	fe-
.	.	.	.	4.B-/	ſi	4.d/	ſi	.	.	2ff\	-rir
!	!	!	!	!	!	!	!	!LO:SIC:v:t=custos ff	!	!	!
8c\	fe-	.	.	.	.	.	.	8ee\	fe-	.	.
!	!	!	!	!	!	!	!	!LO:LB:g=original	!	!	!
2d\	-rir	4.B-/	ſi	.	.	.	.	2ff\	-rir	.	.
.	.	.	.	8c/	fe-	8e/	fe-	.	.	.	.
.	.	.	.	2d\	-rir	4f\	-rir	.	.	4.b-/	ſi
.	.	8c/	fe-	.	.	.	.	.	.	.	.
=60-	=60-	=60-	=60-	=60-	=60-	=60-	=60-	=60-	=60-	=60-	=60-
4.G\	ſi	2d\	-rir	.	.	4r	.	4.b-ny/	ſi	.	.
.	.	.	.	.	.	.	.	.	.	8cc\	fe-
.	.	.	.	4.G/	ſi	4.B-/	ſi	.	.	2dd\	-rir
8A\	fe-	.	.	.	.	.	.	8cc\	fe-	.	.
2B-\	-rir	2G/	di	.	.	.	.	4dd\	-rir	.	.
.	.	.	.	8A/	fe-	8c/	fe-	.	.	.	.
!	!	!	!	!LO:SIC:v:t=custos d	!	!	!	!	!	!	!
.	.	.	.	4B-/	-rir	4d/	-rir	4b-/	di	4dd\	di
=61-	=61-	=61-	=61-	=61-	=61-	=61-	=61-	=61-	=61-	=61-	=61-
!	!	!	!	!LO:LB:g=original	!	!	!	!	!	!	!
0r	.	2B-/	ba-	1r	.	4r	.	2b-/	ba-	2dd\	ba-
.	.	.	.	.	.	4f\	di	.	.	.	.
!	!	!	!	!	!	!	!	!	!	!LO:SIC:v:t=custos b-	!
.	.	2F/	-cio	.	.	4.f\	ba-	2a/	-cio	2cc\	-cio
!	!	!	!	!	!	!LO:SIC:v:t=custos d	!	!	!	!	!
.	.	.	.	.	.	8e/	-cio	.	.	.	.
=62-	=62-	=62-	=62-	=62-	=62-	=62-	=62-	=62-	=62-	=62-	=62-
!	!	!	!	!	!	!	!	!	!	!LO:LB:g=original	!
!	!	!	!	!	!	!LO:LB:g=original	!	!	!	!	!
.	.	1G	arden-	1r	.	1d	den-	4.dd\	ar-	8b-\	ar-
.	.	.	.	.	.	.	.	.	.	8cc\	-den-
.	.	.	.	.	.	.	.	.	.	4dd\	.
.	.	.	.	.	.	.	.	8cc\	-den-	.	.
.	.	.	.	.	.	.	.	8b-/	.	8g/	.
.	.	.	.	.	.	.	.	8a/	.	8a/	.
.	.	.	.	.	.	.	.	4g/	.	4b-/	.
=63-	=63-	=63-	=63-	=63-	=63-	=63-	=63-	=63-	=63-	=63-	=63-
!	!	!LO:SIC:v:t=custos G	!	!	!	!	!	!	!	!	!
1r	.	1D	-te	2r	.	1.d	-te	1f#X	-te	1a	-te
.	.	.	.	4r	.	.	.	.	.	.	.
.	.	.	.	4.d\	ſi	.	.	.	.	.	.
=64-	=64-	=64-	=64-	=64-	=64-	=64-	=64-	=64-	=64-	=64-	=64-
4.B-\	ſi	2r	.	.	.	.	.	4r	.	2r	.
.	.	.	.	8c/	fe-	.	.	.	.	.	.
.	.	.	.	2B-/	-rir	.	.	4.dd\	ſi	.	.
8c\	fe-	.	.	.	.	.	.	.	.	.	.
!	!	!LO:LB:g=original	!	!	!	!	!	!	!	!	!
2d\	-rir	4.G/	ſi	.	.	2r	.	.	.	4.dd\	ſi
.	.	.	.	.	.	.	.	8ee\	fe-	.	.
.	.	.	.	4.d\	ſi	.	.	2ff\	-rir	.	.
.	.	8A/	fe-	.	.	.	.	.	.	8ee\	fe-
=65-	=65-	=65-	=65-	=65-	=65-	=65-	=65-	=65-	=65-	=65-	=65-
4.B-\	ſi	2B-/	-rir	.	.	4.d/	ſi	.	.	2ff\	-rir
.	.	.	.	8e\	fe-	.	.	.	.	.	.
.	.	.	.	2f\	-rir	.	.	4.dd\	ſi	.	.
8c\	fe-	.	.	.	.	8e/	fe-	.	.	.	.
2d\	-rir	4.B-/	ſi	.	.	2f\	-rir	.	.	4.dd\	ſi
.	.	.	.	.	.	.	.	8ee\	fe-	.	.
.	.	.	.	4.B-/	ſi	.	.	4ff\	-rir	.	.
.	.	8c/	fe-	.	.	.	.	.	.	8cc\	fe-
=66-	=66-	=66-	=66-	=66-	=66-	=66-	=66-	=66-	=66-	=66-	=66-
4.G\	ſi	1d	-rir	.	.	2r	.	4r	.	2b-/	-rir
.	.	.	.	8c/	fe-	.	.	.	.	.	.
.	.	.	.	2d\	-rir	.	.	4dd\	di	.	.
8A\	fe-	.	.	.	.	.	.	.	.	.	.
2B-\	-rir	.	.	.	.	4.f\	ſi	8b-\	ba-	4dd\	di
.	.	.	.	.	.	.	.	8cc\	.	.	.
.	.	.	.	4f\	-di	.	.	8dd\	.	8b-\	ba-
!	!	!	!	!	!	!	!	!LO:SIC:v:t=custos ff	!	!	!
.	.	.	.	.	.	8e/	fe-	8ee\	.	8cc\	.
=67-	=67-	=67-	=67-	=67-	=67-	=67-	=67-	=67-	=67-	=67-	=67-
!	!	!	!	!	!	!	!	!LO:LB:g=original	!	!	!
1BB-	di	1B-	di	0f	ba-	2d/	-rir	2ff\	.	8dd\	.
.	.	.	.	.	.	.	.	.	.	8ee\	.
!	!	!	!	!	!	!	!	!	!	!LO:PB:g=original	!
.	.	.	.	.	.	.	.	.	.	2ff\	-cio
.	.	.	.	.	.	2d/	di	4.fny/	cio	.	.
.	.	.	.	.	.	.	.	.	.	4.f/	ar-
.	.	.	.	.	.	.	.	8g/	ar-	.	.
=68-	=68-	=68-	=68-	=68-	=68-	=68-	=68-	=68-	=68-	=68-	=68-
1F	ba-	1A	ba-	.	.	1c	ba-	8a/	.	.	.
.	.	.	.	.	.	.	.	8b-\	.	8g/	.
.	.	.	.	.	.	.	.	4cc\	.	8a/	.
.	.	.	.	.	.	.	.	.	.	8b-/	.
.	.	.	.	.	.	.	.	8a/	-den-	4cc\	-den-
.	.	.	.	.	.	.	.	8b-\	.	.	.
.	.	.	.	.	.	.	.	8cc\	.	8a/	.
!	!	!	!	!	!	!	!	!	!	!LO:SIC:v:t=custos cc	!
.	.	.	.	.	.	.	.	8dd\	.	8b-/	.
=69-	=69-	=69-	=69-	=69-	=69-	=69-	=69-	=69-	=69-	=69-	=69-
!	!	!	!	!	!	!	!	!	!	!LO:PB:g=original	!
1C	-cio	2G/	-cio	1e	-cio	1c	-cio	8ee\	.	8cc\	.
.	.	.	.	.	.	.	.	8ff\	.	8dd\	.
.	.	.	.	.	.	.	.	4gg\	.	8ee\	.
.	.	.	.	.	.	.	.	.	.	8ff\	.
.	.	4.c/	ar-	.	.	.	.	4ee\	-te	4gg\	.
.	.	.	.	.	.	.	.	4.aa\	ar-	4ee\	-te
.	.	8B-/	den-	.	.	.	.	.	.	.	.
=70-	=70-	=70-	=70-	=70-	=70-	=70-	=70-	=70-	=70-	=70-	=70-
0D	arde-	0A	.	0d	arde-	2r	.	.	.	4.aa\	ar-
.	.	.	.	.	.	.	.	8gg\	.	.	.
.	.	.	.	.	.	.	.	8ff\	.	.	.
.	.	.	.	.	.	.	.	8ee\	.	8gg\	.
.	.	.	.	.	.	2f\	ar-	4dd\	.	8ff\	.
.	.	.	.	.	.	.	.	.	.	8ee\	.
.	.	.	.	.	.	.	.	8aa\	den-	4dd\	.
.	.	.	.	.	.	.	.	8gg\	.	.	.
=71-	=71-	=71-	=71-	=71-	=71-	=71-	=71-	=71-	=71-	=71-	=71-
.	.	.	.	.	.	1a	-den-	8ff\	.	8aa\	-den-
.	.	.	.	.	.	.	.	8ee\	.	8gg\	.
.	.	.	.	.	.	.	.	8dd\	.	8ff\	.
.	.	.	.	.	.	.	.	8ee\	.	8ee\	.
.	.	.	.	.	.	.	.	2ff\	.	1dd\	.
=72-	=72-	=72-	=72-	=72-	=72-	=72-	=72-	=72-	=72-	=72-	=72-
00AA	-nte.	00A	te.	00e	-nte.	00a	-te.	00ee	te	.	.
.	.	.	.	.	.	.	.	.	.	4cc#X\	.
!	!	!	!	!	!	!	!	!	!	!LO:N:acc=#	!
.	.	.	.	.	.	.	.	.	.	4bn/	.
=73-	=73-	=73-	=73-	=73-	=73-	=73-	=73-	=73-	=73-	=73-	=73-
.	.	.	.	.	.	.	.	.	.	0.cc#X	te.
=74-	=74-	=74-	=74-	=74-	=74-	=74-	=74-	=74-	=74-	=74-	=74-
.	.	.	.	.	.	.	.	.	.	.	.
=75-	=75-	=75-	=75-	=75-	=75-	=75-	=75-	=75-	=75-	=75-	=75-
.	.	.	.	.	.	.	.	.	.	.	.
=76||-	=76||-	=76||-	=76||-	=76||-	=76||-	=76||-	=76||-	=76||-	=76||-	=76||-	=76||-
!	!	!LO:TX:a:t=Soconda parte	!	!LO:TX:a:t=Soconda parte	!	!LO:TX:a:t=Soconda parte	!	!LO:TX:a:t=Soconda parte	!	!LO:TX:a:t=Soconda parte	!
2r	.	2r	.	2.e\	SO	2r	.	2r	.	2r	.
!LO:TX:a:t=Soconda parte	!	!	!	!	!	!	!	!	!	!	!
2A\	SO	2e\	SO-	.	.	2a\	SO-	2cc#X\	SO-	2ee\	SO-
.	.	.	.	4.A/	-nar	.	.	.	.	.	.
=77-	=77-	=77-	=77-	=77-	=77-	=77-	=77-	=77-	=77-	=77-	=77-
4.D/	-nar	4.d\	-nar	.	.	4.a\	-nar	4.dd\	-nar	4.ff#X\	-nar
.	.	.	.	8A/	le	.	.	.	.	.	.
.	.	.	.	4.d\	lab-	.	.	.	.	.	.
8D/	le	8A/	le	.	.	8a\	le	8dd\	le	8ff#\	le
!	!	!LO:N:acc=#	!	!	!	!	!	!	!	!	!
4.G\	lab-	4.Bn/	lab-	.	.	4.g\	lab-	4.dd\	lab-	4.gg\	lab-
.	.	.	.	8d\	-bra	.	.	.	.	.	.
.	.	.	.	4.G/	e vi	.	.	.	.	.	.
8G\	-ra	8B/	-bra	.	.	8g\	-bra	8dd\	-bra	8gg\	-bra
=78-	=78-	=78-	=78-	=78-	=78-	=78-	=78-	=78-	=78-	=78-	=78-
4.C/	e vi	4.c/	e vi	.	.	4.g\	e vi	4.ee\	e vi	4.gg\	e vi
.	.	.	.	8G/	reſ-	.	.	.	.	.	.
.	.	.	.	4.c/	-ta-	.	.	.	.	.	.
8C/	reſ-	8c/	reſ-	.	.	8g\	reſ-	8ee\	reſ-	8gg\	reſ-
4.F/	-ta-	4.A/	-ta-	.	.	4.a\	-ta-	4.ff\	-ta-	4.ccny\	-ta-
.	.	.	.	8c/	-ro i	.	.	.	.	.	.
.	.	.	.	4.F/	ſeg-	.	.	.	.	.	.
8F/	-ro i	8A/	-ro i	.	.	8a\	-ro i	8ff\	-ro i	8cc\	-ro i
=79-	=79-	=79-	=79-	=79-	=79-	=79-	=79-	=79-	=79-	=79-	=79-
4.BB-/	ſeg-	4.B-y/	ſeg-	.	.	4.f\	ſeg-	4.ff\	ſeg-	4.dd\	ſeg-
.	.	.	.	8F/	-ni	.	.	.	.	.	.
.	.	.	.	2B-/	Di	.	.	.	.	.	.
8BB-/	-ni	8B-/	-ni	.	.	8f\	-ni	8ff\	-ni	8dd\	-ni
2E-X/	Di	2G/	Di	.	.	2g\	Di	2b-/	Di	2ee-X\	Di
.	.	.	.	4.G/	col-	.	.	.	.	.	.
=80-	=80-	=80-	=80-	=80-	=80-	=80-	=80-	=80-	=80-	=80-	=80-
4.C/	colpi	4.c/	col-	.	.	4.g\	col-	4.ccny\	col-	4.ee-X\	col-
.	.	.	.	8G/	-pi	.	.	.	.	.	.
.	.	.	.	4.g\	im-	.	.	.	.	.	.
8C/	im-	8c/	-pi	.	.	8g\	-pi	8ee-X\	-pi	8cc\	-pi
!LO:SIC:v:t=custos C	!	!LO:SIC:v:t=custos c	!	!	!	!LO:SIC:v:t=custos e	!	!LO:SIC:v:t=custos ee	!	!LO:N:acc=#	!
2G\	-preſ-	2d\	im-	.	.	2g\	im-	2dd\	im-	2bn/	im-
.	.	.	.	16f\	preſ-	.	.	.	.	.	.
.	.	.	.	16e\	.	.	.	.	.	.	.
!	!	!	!	!LO:SIC:v:t=custos g	!	!	!	!	!	!	!
.	.	.	.	4d\	.	.	.	.	.	.	.
=81-	=81-	=81-	=81-	=81-	=81-	=81-	=81-	=81-	=81-	=81-	=81-
!	!	!	!	!	!	!	!	!LO:LB:g=original	!	!	!
!	!	!	!	!	!	!LO:LB:g=original	!	!	!	!	!
!	!	!	!	!LO:LB:g=original	!	!	!	!	!	!	!
!	!	!LO:LB:g=original	!	!	!	!	!	!	!	!	!
!LO:LB:g=original	!	!	!	!	!	!	!	!	!	!	!
2C/	ſi	1c	-preſſi	1g	ſi	1e	-preſſi	1eeny	-preſſi	1cc	-preſſi
4r	.	.	.	.	.	.	.	.	.	.	.
4C/	A-	.	.	.	.	.	.	.	.	.	.
=82-	=82-	=82-	=82-	=82-	=82-	=82-	=82-	=82-	=82-	=82-	=82-
1F	-mor	2r	.	00r	.	2r	.	2r	.	2r	.
!	!	!	!	!	!	!	!	!	!	!LO:SIC:v:t=custos dd	!
.	.	2F/	A-	.	.	2a\	A-	2ff\	A-	2cc\	A-
=83-	=83-	=83-	=83-	=83-	=83-	=83-	=83-	=83-	=83-	=83-	=83-
!	!	!	!	!	!	!	!	!	!	!LO:LB:g=original	!
1r	.	1B-	-mor	.	.	1b-	-mor	1ff	-mor	1dd	-mor
=84-	=84-	=84-	=84-	=84-	=84-	=84-	=84-	=84-	=84-	=84-	=84-
00r	.	2r	.	.	.	2r	.	2r	.	2r	.
.	.	1e-X\	deh	.	.	1g\	deh	1b-\	deh	1ee-X\	deh
=85-	=85-	=85-	=85-	=85-	=85-	=85-	=85-	=85-	=85-	=85-	=85-
.	.	.	.	.	.	.	per-	.	.	.	.
.	.	4.B-/	per-	.	.	4.f\	-che 	4.b-/	per-	4.dd\	per-
.	.	8c/	-che a	.	.	8e/	a	8g/	-che a	8cc\	-che a
=86-	=86-	=86-	=86-	=86-	=86-	=86-	=86-	=86-	=86-	=86-	=86-
.	.	4G/	vo-	00r	.	4d/	vo-	4g/	vo-	4b-ny/	vo-
.	.	8G/	-to	.	.	8d/	-to	8g/	-to	8b-/	-to
.	.	8D/	Tat'	.	.	8d/	Tat'	8f#X/	Tat'	8a/	Tat'
.	.	4G/	ar-	.	.	4d/	ar-	4g/	ar-	4b-/	ar-
.	.	4F/	-me	.	.	4f\	-me	4a/	-me	4cc\	-me
=87-	=87-	=87-	=87-	=87-	=87-	=87-	=87-	=87-	=87-	=87-	=87-
.	.	4.B-/	e tai	.	.	4.f\	e tai	4.b-/	e tai	4.dd\	e tai
.	.	8B-/	per-	.	.	8f\	per-	8b-/	per-	8dd\	per-
.	.	4B-/	-coſ-	.	.	4f\	-coſ-	4b-/	-coſ-	4dd\	-coſ-
.	.	4G/	-ſe	.	.	4g\	-ſe	4b-/	-ſe	4dd\	-ſe
=88-	=88-	=88-	=88-	=88-	=88-	=88-	=88-	=88-	=88-	=88-	=88-
0r	.	4d\	uſar	.	.	4f\	uſar	2.a/	uſar	2dd\	uſar
.	.	4e\	da	.	.	4g\	da	.	.	.	.
.	.	4f\	fcher-	.	.	4a\	fcher-	.	.	1cc\	da
!	!	!	!	!	!	!	!	!LO:N:acc=#	!	!	!
.	.	8e\	.	.	.	8g\	.	4bn/	da	.	.
!	!	!	!	!	!	!LO:SIC:v:t=custos e	!	!	!	!	!
.	.	8d\	.	.	.	8f\	.	.	.	.	.
=89-	=89-	=89-	=89-	=89-	=89-	=89-	=89-	=89-	=89-	=89-	=89-
!	!	!LO:SIC:v:t=custos F	!	!	!	!	!	!	!	!	!
!	!	!	!	!	!	!LO:LB:g=original	!	!	!	!	!
.	.	1c	.	.	.	4e/	.	4cc\	ſcher-	.	.
.	.	.	.	.	.	2f\	.	8b-ny/	.	.	.
.	.	.	.	.	.	.	.	8a/	.	.	.
!	!	!	!	!	!	!	!	!LO:SIC:v:t=custos g	!	!	!
.	.	.	.	.	.	.	.	2g/	.	2cc\	ſcher-
.	.	.	.	.	.	4e/	.	.	.	.	.
=90-	=90-	=90-	=90-	=90-	=90-	=90-	=90-	=90-	=90-	=90-	=90-
!	!	!	!	!	!	!	!	!LO:LB:g=original	!	!	!
!	!	!LO:LB:g=original	!	!	!	!	!	!	!	!	!
1r	.	1F	-zo	1r	.	1f	-zo	1a	-zo	1cc	-zo
=91-	=91-	=91-	=91-	=91-	=91-	=91-	=91-	=91-	=91-	=91-	=91-
*M3/2	*	*M3/2	*	*M3/2	*	*M3/2	*	*M3/2	*	*M3/2	*
2.BB-/	Pro-	2.B-/	Pro-	2.d\	Pro-	2.f\	Pro-	2.b-/	Pro-	2.dd\	Pro-
4BB-/	-vin-	4B-/	-vin-	4d\	-vin-	4f\	-vin-	4b-/	-vin-	4dd\	-vin-
2BB-/	-ſi	2B-/	-ſi	2d\	-ſi	2b-\	-ſi	2dd\	-ſi	2ffny\	-ſi
=92-	=92-	=92-	=92-	=92-	=92-	=92-	=92-	=92-	=92-	=92-	=92-
1F	in ve-	1c	in ve-	1f	in ve-	1a	in ve-	1cc	in ve-	1ff	in ve-
!	!	!	!	!	!	!	!	!	!	!LO:SIC:v:t=custos dd	!
2G\	-ra	2G/	-ra	2B-/	-ra	2g\	-ra	2b-/	-ra	2dd\	-ra
=93-	=93-	=93-	=93-	=93-	=93-	=93-	=93-	=93-	=93-	=93-	=93-
!	!	!	!	!	!	!	!	!	!	!LO:LB:g=original	!
1D	pug-	1A	pug-	1d	pug-	1f#X	pug-	1a	pug-	1dd	pug-
2D/	-na	2A/	-na	2d\	-na	2f#\	-na	2a/	-na	2dd\	-na
=94-	=94-	=94-	=94-	=94-	=94-	=94-	=94-	=94-	=94-	=94-	=94-
2.BB-/	Pro-	2.d\	Pro-	2.f\	Pro-	2r	.	2.ff\	Pro-	2.dd\	Pro-
.	.	.	.	.	.	2.b-\	Pro-	.	.	.	.
4BB-/	-vin-	4d\	-vin-	4f\	-vin-	.	.	4ff\	-vin-	4dd\	-vin-
2BB-/	-ſi in	2d\	-ſi in	2B-/	-ſi in	.	.	2ff\	-ſi in	2dd\	-ſi in
.	.	.	.	.	.	4b-\	-vin-	.	.	.	.
=95-	=95-	=95-	=95-	=95-	=95-	=95-	=95-	=95-	=95-	=95-	=95-
1F	ve-	1f	ve-	1c	ve-	2a\	-ſi in	1ff	ve-	1cc	ve-
.	.	.	.	.	.	2a\	ve-	.	.	.	.
2G\	-ra	2B-/	-ra	2G/	-ra	2g\	-ra	2dd\	-ra	2b-\	-ra
=96-	=96-	=96-	=96-	=96-	=96-	=96-	=96-	=96-	=96-	=96-	=96-
*M4/4	*	*M4/4	*	*M4/4	*	*M4/4	*	*M4/4	*	*M4/4	*
*met(c)	*	*met(c)	*	*met(c)	*	*met(c)	*	*met(c)	*	*met(c)	*
2D/	pug-	2d\	pug-	2A/	pug-	2f#X\	pug-	2dd\	pug-	2a/	pug-
!LO:SIC:v:t=custos G	!	!	!	!LO:SIC:v:t=custos d	!	!LO:SIC:v:t=custos g	!	!	!	!	!
2D/	-na	2A/	-na	2d\	-na	2f#\	-na	2dd\	-na	2a/	-na
=97-	=97-	=97-	=97-	=97-	=97-	=97-	=97-	=97-	=97-	=97-	=97-
!	!	!	!	!	!	!LO:LB:g=original	!	!	!	!	!
!	!	!	!	!LO:LB:g=original	!	!	!	!	!	!	!
!LO:LB:g=original	!	!	!	!	!	!	!	!	!	!	!
4.G\	e non	1r	.	4.d\	e non	4.g\	e non	1r	.	4.b-/	e no
8B-\	ſi	.	.	8d\	ſi	8d/	ſi	.	.	8g/	ſi
4A\	ſde-	.	.	4c#X/	ſde-	4e/	ſde-	.	.	4a/	ſde-
4A\	-gni	.	.	4c#/	-gni	4e/	-gni	.	.	4a/	-gni
=98-	=98-	=98-	=98-	=98-	=98-	=98-	=98-	=98-	=98-	=98-	=98-
1r	.	4r	.	1r	.	1r	.	4.dd\	Sco-	1r	.
.	.	4.d\	Sco-	.	.	.	.	.	.	.	.
.	.	.	.	.	.	.	.	8cc\	-tro	.	.
.	.	.	.	.	.	.	.	2b-/	d'a-	.	.
.	.	8d\	-tro	.	.	.	.	.	.	.	.
!	!	!LO:SIC:v:t=custos f#	!	!	!	!	!	!	!	!	!
.	.	4e\	d'a-	.	.	.	.	.	.	.	.
=99-	=99-	=99-	=99-	=99-	=99-	=99-	=99-	=99-	=99-	=99-	=99-
!	!	!	!	!	!	!	!	!LO:SIC:v:t=custos dd	!	!	!
!	!	!LO:LB:g=original	!	!	!	!	!	!	!	!	!
4r	.	2f#X\	man-	4r	.	4r	.	2a/	-man-	4r	.
4D/	e	.	.	4d\	e	4d/	e	.	.	4a/	e
!	!	!	!	!	!	!	!	!LO:LB:g=original	!	!	!
4.G\	non	2g\	te	4.B-/	non	4.d/	non	2g/	-te	4.b-/	non
8B-\	ſi	.	.	8d\	ſi	8d/	ſi	.	.	8g/	ſi
=100-	=100-	=100-	=100-	=100-	=100-	=100-	=100-	=100-	=100-	=100-	=100-
4A\	ſde-	1r	.	4c#X/	ſde-	4e/	ſde-	1r	.	4a/	ſde-
4A\	-gni	.	.	4c#/	-gni	4e/	-gni	.	.	4a/	-gni
4r	.	.	.	4r	.	2r	.	.	.	4.dd\	Sco-
4.B-\	Scon-	.	.	4.d\	Scon-	.	.	.	.	.	.
.	.	.	.	.	.	.	.	.	.	8cc\	-tro
=101-	=101-	=101-	=101-	=101-	=101-	=101-	=101-	=101-	=101-	=101-	=101-
.	.	2r	.	.	.	1r	.	2r	.	2b-/	d'a-
8B-\	-tro	.	.	8d\	-tro	.	.	.	.	.	.
4c\	d'a-	.	.	4e\	d'a-	.	.	.	.	.	.
!	!	!	!	!	!	!	!	!	!	!LO:SIC:v:t=custos g	!
2d\	-man-	4r	.	2f#X\	-man-	.	.	4.dd\	Scon-	2a/	-man-
.	.	4.d\	Scon-	.	.	.	.	.	.	.	.
.	.	.	.	.	.	.	.	8cc\	-tro	.	.
=102-	=102-	=102-	=102-	=102-	=102-	=102-	=102-	=102-	=102-	=102-	=102-
!	!	!	!	!	!	!	!	!	!	!LO:LB:g=original	!
2G\	-te	.	.	2g\	-te	1r	.	2b-/	d'a-	2g/	-te
.	.	8d\	-tro	.	.	.	.	.	.	.	.
.	.	4e\	d'a-	.	.	.	.	.	.	.	.
2r	.	2f#X\	man-	2r	.	.	.	2a/	-man-	2r	.
=103-	=103-	=103-	=103-	=103-	=103-	=103-	=103-	=103-	=103-	=103-	=103-
1r	.	2g\	-te	1r	.	4r	.	2g/	-te	4.gg\	Scon-
.	.	.	.	.	.	4.g\	Scon-	.	.	.	.
.	.	.	.	.	.	.	.	.	.	8ff\	-tro
.	.	2r	.	.	.	.	.	2r	.	2eeny\	d'a-
.	.	.	.	.	.	8g\	-tro	.	.	.	.
.	.	.	.	.	.	4a\	d'a-	.	.	.	.
=104-	=104-	=104-	=104-	=104-	=104-	=104-	=104-	=104-	=104-	=104-	=104-
!	!	!	!	!	!	!LO:N:acc=#	!	!	!	!	!
0r	.	4r	.	4r	.	2bn\	-man-	4r	.	2dd\	-man-
.	.	4g\	e	4G/	e	.	.	4dd\	e	.	.
.	.	4.g\	non	4.cny/	non	2cc\	-te	4.ee-X\	non	2cc\	-te
!	!	!	!	!LO:SIC:v:t=custos d	!	!	!	!	!	!	!
.	.	8g\	ſi	8e-X\	ſi	.	.	8cc\	ſi	.	.
=105-	=105-	=105-	=105-	=105-	=105-	=105-	=105-	=105-	=105-	=105-	=105-
!	!	!	!	!LO:LB:g=original	!	!	!	!	!	!	!
.	.	4f#X\	ſde-	4d\	ſde-	1r	.	4dd\	ſde-	2r	.
.	.	4f#\	-gni	4d\	-gni	.	.	4dd\	-gni	.	.
.	.	2r	.	4.c/	Scon-	.	.	4.gg\	Scon-	4r	.
.	.	.	.	.	.	.	.	.	.	4.g/	Scon-
.	.	.	.	8d\	-tro	.	.	8ff\	-tro	.	.
=106-	=106-	=106-	=106-	=106-	=106-	=106-	=106-	=106-	=106-	=106-	=106-
1r	.	1r	.	2eny\	d'a-	1r	.	2eeny\	d'a-	.	.
.	.	.	.	.	.	.	.	.	.	8g/J	-tro
.	.	.	.	.	.	.	.	.	.	4a/	d'a-
!	!	!	!	!	!	!	!	!	!	!LO:N:acc=#	!
.	.	.	.	2g\	-man-	.	.	2dd\	-man-	2bn/	-man-
=107-	=107-	=107-	=107-	=107-	=107-	=107-	=107-	=107-	=107-	=107-	=107-
2r	.	2r	.	1c	te	2r	.	1cc	te	2cc\	-te
2C/	A-	2c/	A-	.	.	2g\	A-	.	.	2ee\	A-
=108-	=108-	=108-	=108-	=108-	=108-	=108-	=108-	=108-	=108-	=108-	=108-
0F	-mor	0c	-mor	2r	.	0a	-mor	2r	.	1ff	-mor
.	.	.	.	2A/	A-	.	.	2cc\	A-	.	.
=109-	=109-	=109-	=109-	=109-	=109-	=109-	=109-	=109-	=109-	=109-	=109-
!	!	!	!	!	!	!LO:SIC:v:t=custos f	!	!LO:SIC:v:t=custos a	!	!	!
.	.	.	.	1fny	-mor	.	.	1cc	-mor	2r	.
.	.	.	.	.	.	.	.	.	.	2cc\	A-
=110-	=110-	=110-	=110-	=110-	=110-	=110-	=110-	=110-	=110-	=110-	=110-
!	!	!	!	!	!	!LO:LB:g=original	!	!	!	!	!
2r	.	2r	.	2r	.	2r	.	00r	.	1dd	-mor
!LO:SIC:v:t=custos E-	!	!LO:SIC:v:t=custos B-	!	!	!	!	!	!	!	!	!
2BB-/	A-	2B-/	A-	2d\	A-	2fny\	A-	.	.	.	.
=111-	=111-	=111-	=111-	=111-	=111-	=111-	=111-	=111-	=111-	=111-	=111-
!	!	!LO:LB:g=original	!	!	!	!	!	!	!	!	!
!LO:LB:g=original	!	!	!	!	!	!	!	!	!	!	!
2.E-X/	-mor	2.B-/	-mor	2.e-X\	-mor	2.g\	-mor	.	.	1r	.
4E-/	me	4B-/	me	4e-\	me	4g\	me	.	.	.	.
=112-	=112-	=112-	=112-	=112-	=112-	=112-	=112-	=112-	=112-	=112-	=112-
2Eny/	tuo	2B-/	tuo	2eny\	tuo	2g\	tuo	.	.	0r	.
2C/	dev-	2c/	dev-	2e\	dev-	2g\	dev-	.	.	.	.
=113-	=113-	=113-	=113-	=113-	=113-	=113-	=113-	=113-	=113-	=113-	=113-
1D	-oto	1A	-oto	1d	-oto	1f#X	-oto	.	.	.	.
=114-	=114-	=114-	=114-	=114-	=114-	=114-	=114-	=114-	=114-	=114-	=114-
!	!	!	!	!	!	!	!	!LO:LB:g=original	!	!	!
4D/	Op-	4A/	Op-	4d\	Op-	4fny\	Op-	1r	.	1r	.
4D/	-po-	4A/	-po-	4d\	-po-	4f\	-po-	.	.	.	.
4G\	-ni	4B-/	-ni	4.d\	-ni	4g\	-ni	.	.	.	.
4G\	a	4B-/	a	.	.	4g\	a	.	.	.	.
!	!	!	!	!LO:SIC:v:t=custos f	!	!	!	!	!	!	!
.	.	.	.	8e\	a	.	.	.	.	.	.
=115-	=115-	=115-	=115-	=115-	=115-	=115-	=115-	=115-	=115-	=115-	=115-
!	!	!	!	!LO:LB:g=original	!	!	!	!	!	!	!
2F/	l'u-	2c/	l'u-	2f\	l'u-	2a\	l'u-	2r	.	2r	.
2F/	-na	2c/	-na	2f\	-na	2a\	-na	4r	.	4r	.
.	.	.	.	.	.	.	.	4a/	o	4cc\	o
=116-	=116-	=116-	=116-	=116-	=116-	=116-	=116-	=116-	=116-	=116-	=116-
00r	.	1r	.	00r	.	0r	.	4b-/	fra	4dd\	fra
!	!	!	!	!	!	!	!	!	!	!LO:SIC:v:t=custos ff	!
.	.	.	.	.	.	.	.	4cc\	le	4ee\	le
!	!	!	!	!	!	!	!	!	!	!LO:LB:g=original	!
.	.	.	.	.	.	.	.	8dd\	due	8ff\	due
.	.	.	.	.	.	.	.	8cc\	.	8ee\	.
.	.	.	.	.	.	.	.	8b-/	.	8dd\	.
.	.	.	.	.	.	.	.	8a/	.	8cc\	.
=117-	=117-	=117-	=117-	=117-	=117-	=117-	=117-	=117-	=117-	=117-	=117-
.	.	1G	fa	.	.	.	.	4g/	.	4b-/	.
.	.	.	.	.	.	.	.	4b-/	fa	4dd\	fa
.	.	.	.	.	.	.	.	4.b-/	ter-	4.dd\	ter-
.	.	.	.	.	.	.	.	16a/	.	16cc\	.
.	.	.	.	.	.	.	.	16g/	.	16b-\	.
=118-	=118-	=118-	=118-	=118-	=118-	=118-	=118-	=118-	=118-	=118-	=118-
.	.	1d	ter-	.	.	1r	.	4f#X/	.	4a/	.
.	.	.	.	.	.	.	.	2g/	.	4g/	.
.	.	.	.	.	.	.	.	.	.	2a/	.
.	.	.	.	.	.	.	.	4f#X/	.	.	.
=119-	=119-	=119-	=119-	=119-	=119-	=119-	=119-	=119-	=119-	=119-	=119-
.	.	2G/	-zo	.	.	2r	.	2g/	zo	2g/	zo
!	!	!	!	!	!	!	!	!	!	!LO:N:acc=#	!
.	.	2G/	A-	.	.	2g\	A-	2dd\	A-	2bn/	A-
=120-	=120-	=120-	=120-	=120-	=120-	=120-	=120-	=120-	=120-	=120-	=120-
!	!	!	!	!	!	!	!	!LO:SIC:v:t=custos a	!	!	!
2r	.	1c	-mor	2r	.	1g	-mor	1ee	-mor	1cc	-mor
2C/	A-	.	.	2c/	A-	.	.	.	.	.	.
=121-	=121-	=121-	=121-	=121-	=121-	=121-	=121-	=121-	=121-	=121-	=121-
1F	-mor	2r	.	1c	-mor	2r	.	2r	.	2r	.
!	!	!	!	!	!	!	!	!LO:LB:g=original	!	!	!
.	.	2F/	A-	.	.	2f\	A-	2a/	A-	2cc\	A-
=122-	=122-	=122-	=122-	=122-	=122-	=122-	=122-	=122-	=122-	=122-	=122-
00r	.	2.B-/	-mor	00r	.	2.f\	-mor	2.b-/	-mor	2.dd\	-mor
!	!	!	!	!	!	!LO:SIC:v:t=custos f	!	!	!	!	!
.	.	4B-/	me	.	.	4f\	me	4b-/	me	4dd\	me
=123-	=123-	=123-	=123-	=123-	=123-	=123-	=123-	=123-	=123-	=123-	=123-
!	!	!	!	!	!	!LO:LB:g=original	!	!	!	!	!
.	.	2B-/	tuo	.	.	2f\	tuo	2b-/	tuo	2dd\	tuo
!	!	!LO:SIC:v:t=custos A	!	!	!	!	!	!	!	!	!
.	.	2G/	de-	.	.	2g\	de-	2b-/	de-	2dd\	de-
=124-	=124-	=124-	=124-	=124-	=124-	=124-	=124-	=124-	=124-	=124-	=124-
!	!	!	!	!	!	!	!	!	!	!LO:SIC:v:t=custos cc	!
!	!	!LO:LB:g=original	!	!	!	!	!	!	!	!	!
.	.	1A	-vo-	.	.	1e	-voto	1a	-vo-	1cc#X	-vo-
=125-	=125-	=125-	=125-	=125-	=125-	=125-	=125-	=125-	=125-	=125-	=125-
!	!	!	!	!	!	!	!	!	!	!LO:LB:g=original	!
.	.	4A/	-to	.	.	4e/	Op-	4a/	-to	4ccny\	-to
.	.	4A/	Op-	.	.	4e/	-po-	4a/	Op-	4cc\	Op-
.	.	4d\	-po-	.	.	4f\	-ni a	4.a/	-po-	4dd\	-po-
.	.	4d\	-ni a	.	.	4f\	l'una	.	.	4dd\	-ni a
.	.	.	.	.	.	.	.	8b-/	-ni a	.	.
=126-	=126-	=126-	=126-	=126-	=126-	=126-	=126-	=126-	=126-	=126-	=126-
0r	.	2c/	l'u-	2r	.	2g\	o	2cc\	l'u-	2ee\	l'u-
.	.	2c/	-na	4r	.	2g\	fra	2cc\	-na	2ee\	-na
.	.	.	.	4e\	o	.	.	.	.	.	.
=127-	=127-	=127-	=127-	=127-	=127-	=127-	=127-	=127-	=127-	=127-	=127-
.	.	1r	.	4f\	fra	4a\	le	1r	.	1r	.
.	.	.	.	4g\	le	4b-ny\	due	.	.	.	.
.	.	.	.	8a\	due	8cc\	.	.	.	.	.
.	.	.	.	8g\	.	8b-\	.	.	.	.	.
.	.	.	.	8f\	.	8a\	.	.	.	.	.
.	.	.	.	8e\	.	8g\	.	.	.	.	.
=128-	=128-	=128-	=128-	=128-	=128-	=128-	=128-	=128-	=128-	=128-	=128-
1D	fa	0r	.	4d\	.	4f\	.	1r	.	1r	.
.	.	.	.	4f\	fa	4a\	fa	.	.	.	.
.	.	.	.	4.f\	ter-	4.a\	ter-	.	.	.	.
.	.	.	.	16e\	.	16g\	.	.	.	.	.
.	.	.	.	16d\	.	16f\	.	.	.	.	.
=129-	=129-	=129-	=129-	=129-	=129-	=129-	=129-	=129-	=129-	=129-	=129-
1A	ter-	.	.	4c#X/	.	4e/	.	2r	.	2r	.
.	.	.	.	2d\	.	4d/	.	.	.	.	.
!	!	!	!	!	!	!LO:SIC:v:t=custos d	!	!	!	!	!
.	.	.	.	.	.	2e/	.	4r	.	4r	.
!	!	!	!	!LO:SIC:v:t=custos d	!	!	!	!	!	!	!
.	.	.	.	4c#X/	.	.	.	4a/	o	4ee\	o
=130-	=130-	=130-	=130-	=130-	=130-	=130-	=130-	=130-	=130-	=130-	=130-
!	!	!	!	!	!	!LO:LB:g=original	!	!	!	!	!
!	!	!	!	!LO:LB:g=original	!	!	!	!	!	!	!
1D	-zo	2r	.	2d\	zo	0d	-zo	4dd\	fra	4ff\	fra
.	.	.	.	.	.	.	.	4ee\	le	4gg\	le
.	.	4r	.	4r	.	.	.	8ff\	due	8aa\	due
.	.	.	.	.	.	.	.	8ee\	.	8gg\	.
.	.	4d\	o	4A/	o	.	.	8dd\	.	8ff\	.
!	!	!	!	!	!	!	!	!LO:SIC:v:t=custos b-	!	!	!
.	.	.	.	.	.	.	.	8cc\	.	8ee\	.
=131-	=131-	=131-	=131-	=131-	=131-	=131-	=131-	=131-	=131-	=131-	=131-
!	!	!	!	!	!	!	!	!LO:LB:g=original	!	!	!
0.D	fa	4f\	fra	4d\	fra	.	.	4b-/	.	2dd\	.
.	.	4g\	le	4e\	le	.	.	8a/	.	.	.
.	.	.	.	.	.	.	.	8g/	.	.	.
.	.	8a\	due	8f\	due	.	.	4fny/	.	4r	.
.	.	8g\	.	8e\	.	.	.	.	.	.	.
.	.	8f\	.	8d\	.	.	.	4a/	o	4dd\	o
.	.	8e\	.	8cny/	.	.	.	.	.	.	.
=132-	=132-	=132-	=132-	=132-	=132-	=132-	=132-	=132-	=132-	=132-	=132-
.	.	1d	.	4B-/	.	2r	.	4dd\	fra	4ff\	fra
.	.	.	.	8A/	.	.	.	4ee\	le	4gg\	le
.	.	.	.	8G/	.	.	.	.	.	.	.
.	.	.	.	2F/	.	4r	.	8ff\	due	8aa\	due
.	.	.	.	.	.	.	.	8ee\	.	8gg\	.
.	.	.	.	.	.	4d/	o	8dd\	.	8ff\	.
!	!	!	!	!	!	!	!	!	!	!LO:SIC:v:t=custos dd	!
.	.	.	.	.	.	.	.	8cc\	.	8ee\	.
=133-	=133-	=133-	=133-	=133-	=133-	=133-	=133-	=133-	=133-	=133-	=133-
!	!	!	!	!	!	!	!	!	!	!LO:LB:g=original	!
.	.	2r	.	4r	.	4.f\	fra	4b-/	.	4dd\	.
.	.	.	.	4f\	o	.	.	8a/	.	4ff\	fa
.	.	.	.	.	.	8g\	le	8g/	.	.	.
.	.	2A/	fa	4d\	fra	4.a\	due	4f/	.	4.ff\	ter-
.	.	.	.	4d\	le	.	.	4a/	fa	.	.
.	.	.	.	.	.	16g\	.	.	.	16ee\	.
.	.	.	.	.	.	16f\	.	.	.	16dd\	.
=134-	=134-	=134-	=134-	=134-	=134-	=134-	=134-	=134-	=134-	=134-	=134-
1A	ter-	1A	ter-	4e\	due	4e/	.	1a	ter-	4cc#X\	.
.	.	.	.	4f\	fa	4d/	fa	.	.	2dd\	.
.	.	.	.	2e\	ter-	2e/	ter-	.	.	.	.
.	.	.	.	.	.	.	.	.	.	4cc#X\	.
=135-	=135-	=135-	=135-	=135-	=135-	=135-	=135-	=135-	=135-	=135-	=135-
00D	-zo	00A	-zo	00d	-zo,	00f#X	-zo,	00a	-zo	00dd	-zo
=136-	=136-	=136-	=136-	=136-	=136-	=136-	=136-	=136-	=136-	=136-	=136-
.	.	.	.	.	.	.	.	.	.	.	.
=137-	=137-	=137-	=137-	=137-	=137-	=137-	=137-	=137-	=137-	=137-	=137-
.	.	.	.	.	.	.	.	.	.	.	.
=138-	=138-	=138-	=138-	=138-	=138-	=138-	=138-	=138-	=138-	=138-	=138-
.	.	.	.	.	.	.	.	.	.	.	.
=-	=-	=-	=-	=-	=-	=-	=-	=-	=-	=-	=-
*-	*-	*-	*-	*-	*-	*-	*-	*-	*-	*-	*-
!!!system-decoration: [(s1,s2,s3,s4,s5,s6)]
!!!ENC: Marta Opryszak
!!!END: 2022-06-21
!!!ENC: Urszula Świątek
!!!END: 2022-07-24
!!!YEC: Copyright 2022 Narodowy Instytut Fryderyka Chopina (https://polishscores.org)
!!!YEM: License CC-BY-4.0 (https://creativecommons.org/licenses/by/4.0)
